Newaita-dark/.places-manjaro/24/folder-drag-accept.svg

<?xml version="1.0" encoding="UTF-8"?>
<svg xmlns="http://www.w3.org/2000/svg" xmlns:xlink="http://www.w3.org/1999/xlink" width="24pt" height="24pt" viewBox="0 0 24 24" version="1.1">
<defs>
<linearGradient id="linear0" gradientUnits="userSpaceOnUse" x1="254" y1="233.5" x2="254" y2="254.666672" gradientTransform="matrix(0.0468795,0,0,0.0468795,-0.0000028613,10.57523)">
<stop offset="0" style="stop-color:rgb(0%,0%,0%);stop-opacity:0.27451;"/>
<stop offset="1" style="stop-color:rgb(0%,0%,0%);stop-opacity:0;"/>
</linearGradient>
<radialGradient id="radial0" gradientUnits="userSpaceOnUse" cx="450.908936" cy="189.579361" fx="450.908936" fy="189.579361" r="21.166656" gradientTransform="matrix(0.000000130628,-0.0585994,-0.105479,-0.0000000761539,40.58641,48.192641)">
<stop offset="0" style="stop-color:rgb(0%,0%,0%);stop-opacity:0.313725;"/>
<stop offset="0.222222" style="stop-color:rgb(0%,0%,0%);stop-opacity:0.27451;"/>
<stop offset="1" style="stop-color:rgb(0%,0%,0%);stop-opacity:0;"/>
</radialGradient>
<radialGradient id="radial1" gradientUnits="userSpaceOnUse" cx="450.908936" cy="189.579361" fx="450.908936" fy="189.579361" r="21.166656" gradientTransform="matrix(-0.000000130628,0.0585994,0.105479,0.0000000761539,-16.771633,-5.149468)">
<stop offset="0" style="stop-color:rgb(0%,0%,0%);stop-opacity:0.313725;"/>
<stop offset="0.222222" style="stop-color:rgb(0%,0%,0%);stop-opacity:0.27451;"/>
<stop offset="1" style="stop-color:rgb(0%,0%,0%);stop-opacity:0;"/>
</radialGradient>
<radialGradient id="radial2" gradientUnits="userSpaceOnUse" cx="450.908936" cy="189.579361" fx="450.908936" fy="189.579361" r="21.166656" gradientTransform="matrix(-0.000000130628,-0.0585994,0.105479,-0.0000000761539,-16.771633,48.192641)">
<stop offset="0" style="stop-color:rgb(0%,0%,0%);stop-opacity:0.313725;"/>
<stop offset="0.222222" style="stop-color:rgb(0%,0%,0%);stop-opacity:0.27451;"/>
<stop offset="1" style="stop-color:rgb(0%,0%,0%);stop-opacity:0;"/>
</radialGradient>
<radialGradient id="radial3" gradientUnits="userSpaceOnUse" cx="450.908936" cy="189.579361" fx="450.908936" fy="189.579361" r="21.166656" gradientTransform="matrix(0.000000130628,0.0585994,-0.105479,0.0000000761539,40.586408,-5.149468)">
<stop offset="0" style="stop-color:rgb(0%,0%,0%);stop-opacity:0.313725;"/>
<stop offset="0.222222" style="stop-color:rgb(0%,0%,0%);stop-opacity:0.27451;"/>
<stop offset="1" style="stop-color:rgb(0%,0%,0%);stop-opacity:0;"/>
</radialGradient>
<linearGradient id="linear1" gradientUnits="userSpaceOnUse" x1="317.5" y1="233.499985" x2="317.5" y2="-147.500015" gradientTransform="matrix(0.0468795,0,0,0.0468795,-0.000000141188,10.575229)">
<stop offset="0" style="stop-color:rgb(25.882353%,25.882353%,25.882353%);stop-opacity:1;"/>
<stop offset="1" style="stop-color:rgb(38.039216%,38.039216%,38.039216%);stop-opacity:1;"/>
</linearGradient>
<linearGradient id="linear2" gradientUnits="userSpaceOnUse" x1="254" y1="-115.750008" x2="254" y2="233.5" gradientTransform="matrix(0.0468795,0,0,0.0468795,-0.000000141188,10.575229)">
<stop offset="0" style="stop-color:rgb(30.196078%,71.372549%,67.45098%);stop-opacity:1;"/>
<stop offset="1" style="stop-color:rgb(14.901961%,65.098039%,60.392157%);stop-opacity:1;"/>
</linearGradient>
</defs>
<g id="surface1">
<path style=" stroke:none;fill-rule:nonzero;fill:url(#linear0);" d="M 2.976562 21.523438 L 20.839844 21.523438 L 20.839844 22.515625 L 2.976562 22.515625 Z M 2.976562 21.523438 "/>
<path style=" stroke:none;fill-rule:nonzero;fill:url(#radial0);" d="M 20.839844 21.523438 L 22.824219 21.523438 L 22.824219 20.53125 L 20.839844 20.53125 Z M 20.839844 21.523438 "/>
<path style=" stroke:none;fill-rule:nonzero;fill:url(#radial1);" d="M 2.976562 21.523438 L 0.992188 21.523438 L 0.992188 22.515625 L 2.976562 22.515625 Z M 2.976562 21.523438 "/>
<path style=" stroke:none;fill-rule:nonzero;fill:url(#radial2);" d="M 2.976562 21.523438 L 0.992188 21.523438 L 0.992188 20.53125 L 2.976562 20.53125 Z M 2.976562 21.523438 "/>
<path style=" stroke:none;fill-rule:nonzero;fill:url(#radial3);" d="M 20.839844 21.523438 L 22.824219 21.523438 L 22.824219 22.515625 L 20.839844 22.515625 Z M 20.839844 21.523438 "/>
<path style=" stroke:none;fill-rule:nonzero;fill:url(#linear1);" d="M 5.457031 3.660156 C 4.90625 3.660156 4.464844 4.101562 4.464844 4.652344 L 4.464844 5.644531 L 1.984375 5.644531 C 1.433594 5.644531 0.992188 6.085938 0.992188 6.636719 L 0.992188 14.574219 C 0.992188 15.125 1.433594 15.566406 1.984375 15.566406 L 21.832031 15.566406 C 22.378906 15.566406 22.824219 15.125 22.824219 14.574219 L 22.824219 6.636719 C 22.824219 6.382812 22.730469 6.15625 22.574219 5.980469 L 22.574219 4.652344 C 22.574219 4.101562 22.132812 3.660156 21.582031 3.660156 Z M 5.457031 3.660156 "/>
<path style=" stroke:none;fill-rule:nonzero;fill:rgb(90.196079%,90.196079%,90.196079%);fill-opacity:0.588235;" d="M 5.457031 3.660156 C 4.90625 3.660156 4.464844 4.101562 4.464844 4.652344 L 4.464844 4.777344 C 4.464844 4.226562 4.90625 3.785156 5.457031 3.785156 L 21.582031 3.785156 C 22.132812 3.785156 22.574219 4.226562 22.574219 4.777344 L 22.574219 4.652344 C 22.574219 4.101562 22.132812 3.660156 21.582031 3.660156 Z M 5.457031 3.660156 "/>
<path style=" stroke:none;fill-rule:nonzero;fill:rgb(12.941177%,12.941177%,12.941177%);fill-opacity:1;" d="M 5.457031 3.589844 C 4.871094 3.589844 4.394531 4.066406 4.394531 4.652344 L 4.394531 5.574219 L 1.984375 5.574219 C 1.398438 5.574219 0.921875 6.050781 0.921875 6.636719 L 0.921875 14.574219 C 0.921875 15.164062 1.398438 15.636719 1.984375 15.636719 L 21.832031 15.636719 C 22.417969 15.636719 22.894531 15.164062 22.894531 14.574219 L 22.894531 6.636719 C 22.894531 6.378906 22.800781 6.140625 22.644531 5.957031 L 22.644531 4.652344 C 22.644531 4.066406 22.167969 3.589844 21.582031 3.589844 Z M 5.457031 3.730469 L 21.582031 3.730469 C 22.09375 3.730469 22.503906 4.140625 22.503906 4.652344 L 22.503906 6.007812 L 22.523438 6.027344 C 22.664062 6.1875 22.753906 6.402344 22.753906 6.636719 L 22.753906 14.574219 C 22.753906 15.085938 22.34375 15.496094 21.832031 15.496094 L 1.984375 15.496094 C 1.472656 15.496094 1.0625 15.085938 1.0625 14.574219 L 1.0625 6.636719 C 1.0625 6.125 1.472656 5.714844 1.984375 5.714844 L 4.535156 5.714844 L 4.535156 4.652344 C 4.535156 4.140625 4.945312 3.730469 5.457031 3.730469 Z M 5.457031 3.730469 "/>
<path style=" stroke:none;fill-rule:nonzero;fill:url(#linear2);" d="M 1.984375 10.109375 C 1.433594 10.109375 0.992188 10.554688 0.992188 11.101562 L 0.992188 20.527344 C 0.992188 21.078125 1.433594 21.523438 1.984375 21.523438 L 21.832031 21.523438 C 22.378906 21.523438 22.824219 21.078125 22.824219 20.527344 L 22.824219 11.101562 L 9.425781 11.101562 C 8.878906 11.101562 8.433594 10.660156 8.433594 10.109375 Z M 1.984375 10.109375 "/>
<path style=" stroke:none;fill-rule:nonzero;fill:rgb(0%,0%,0%);fill-opacity:0.196078;" d="M 1.984375 21.523438 C 1.433594 21.523438 0.992188 21.078125 0.992188 20.53125 L 0.992188 20.40625 C 0.992188 20.953125 1.433594 21.398438 1.984375 21.398438 L 21.832031 21.398438 C 22.378906 21.398438 22.824219 20.953125 22.824219 20.40625 L 22.824219 20.53125 C 22.824219 21.078125 22.378906 21.523438 21.832031 21.523438 Z M 1.984375 21.523438 "/>
<path style=" stroke:none;fill-rule:nonzero;fill:rgb(90.196079%,90.196079%,90.196079%);fill-opacity:0.937255;" d="M 1.984375 10.109375 C 1.433594 10.109375 0.992188 10.554688 0.992188 11.101562 L 0.992188 11.226562 C 0.992188 10.675781 1.433594 10.234375 1.984375 10.234375 L 8.433594 10.234375 L 8.433594 10.109375 Z M 1.984375 10.109375 "/>
<path style=" stroke:none;fill-rule:nonzero;fill:rgb(90.196079%,90.196079%,90.196079%);fill-opacity:0.937255;" d="M 9.425781 11.226562 C 8.878906 11.226562 8.433594 10.785156 8.433594 10.234375 L 8.433594 10.109375 C 8.433594 10.660156 8.878906 11.105469 9.425781 11.101562 L 22.882812 11.101562 L 22.882812 11.226562 Z M 9.425781 11.226562 "/>
<path style=" stroke:none;fill-rule:nonzero;fill:rgb(12.941177%,12.941177%,12.941177%);fill-opacity:1;" d="M 1.984375 10.039062 C 1.398438 10.039062 0.921875 10.515625 0.921875 11.101562 L 0.921875 20.527344 C 0.921875 21.117188 1.398438 21.59375 1.984375 21.59375 L 21.832031 21.59375 C 22.417969 21.59375 22.894531 21.117188 22.894531 20.527344 L 22.894531 11.03125 L 9.425781 11.03125 C 8.914062 11.03125 8.503906 10.621094 8.503906 10.109375 L 8.503906 10.039062 Z M 1.984375 10.179688 L 8.367188 10.179688 C 8.402344 10.734375 8.863281 11.171875 9.425781 11.171875 L 22.753906 11.171875 L 22.753906 20.527344 C 22.753906 21.042969 22.34375 21.453125 21.832031 21.453125 L 1.984375 21.453125 C 1.472656 21.453125 1.0625 21.042969 1.0625 20.527344 L 1.0625 11.101562 C 1.0625 10.589844 1.472656 10.179688 1.984375 10.179688 Z M 1.984375 10.179688 "/>
</g>
</svg>

<svg xmlns="http://www.w3.org/2000/svg" width="32" height="32" viewBox="0 0 24 24"><defs><linearGradient id="a" gradientUnits="userSpaceOnUse" x1="254" y1="233.5" x2="254" y2="254.667" gradientTransform="matrix(.04688 0 0 .04688 0 10.575)"><stop offset="0" stop-opacity=".275"/><stop offset="1" stop-opacity="0"/></linearGradient><radialGradient id="b" gradientUnits="userSpaceOnUse" cx="450.909" cy="189.579" fx="450.909" fy="189.579" r="21.167" gradientTransform="matrix(0 -.0586 -.10548 0 40.586 48.193)"><stop offset="0" stop-opacity=".314"/><stop offset=".222" stop-opacity=".275"/><stop offset="1" stop-opacity="0"/></radialGradient><radialGradient id="c" gradientUnits="userSpaceOnUse" cx="450.909" cy="189.579" fx="450.909" fy="189.579" r="21.167" gradientTransform="matrix(0 .0586 .10548 0 -16.772 -5.15)"><stop offset="0" stop-opacity=".314"/><stop offset=".222" stop-opacity=".275"/><stop offset="1" stop-opacity="0"/></radialGradient><radialGradient id="d" gradientUnits="userSpaceOnUse" cx="450.909" cy="189.579" fx="450.909" fy="189.579" r="21.167" gradientTransform="matrix(0 -.0586 .10548 0 -16.772 48.193)"><stop offset="0" stop-opacity=".314"/><stop offset=".222" stop-opacity=".275"/><stop offset="1" stop-opacity="0"/></radialGradient><radialGradient id="e" gradientUnits="userSpaceOnUse" cx="450.909" cy="189.579" fx="450.909" fy="189.579" r="21.167" gradientTransform="matrix(0 .0586 -.10548 0 40.586 -5.15)"><stop offset="0" stop-opacity=".314"/><stop offset=".222" stop-opacity=".275"/><stop offset="1" stop-opacity="0"/></radialGradient><linearGradient id="f" gradientUnits="userSpaceOnUse" x1="317.5" y1="233.5" x2="317.5" y2="-147.5" gradientTransform="matrix(.04688 0 0 .04688 0 10.575)"><stop offset="0" stop-color="#424242"/><stop offset="1" stop-color="#616161"/></linearGradient><linearGradient id="g" gradientUnits="userSpaceOnUse" x1="254" y1="-115.75" x2="254" y2="233.5" gradientTransform="matrix(.04688 0 0 .04688 0 10.575)"><stop offset="0" stop-color="#4db6ac"/><stop offset="1" stop-color="#26a69a"/></linearGradient></defs><path d="M2.977 21.523H20.84v.993H2.977zm0 0" fill="url(#a)"/><path d="M20.84 21.523h1.984v-.992H20.84zm0 0" fill="url(#b)"/><path d="M2.977 21.523H.992v.993h1.985zm0 0" fill="url(#c)"/><path d="M2.977 21.523H.992v-.992h1.985zm0 0" fill="url(#d)"/><path d="M20.84 21.523h1.984v.993H20.84zm0 0" fill="url(#e)"/><path d="M5.457 3.66a.989.989 0 0 0-.992.992v.993h-2.48a.989.989 0 0 0-.993.992v7.937c0 .551.442.992.992.992h19.848a.991.991 0 0 0 .992-.992V6.637a.978.978 0 0 0-.25-.657V4.652a.989.989 0 0 0-.992-.992zm0 0" fill="url(#f)"/><path d="M5.457 3.66a.989.989 0 0 0-.992.992v.125c0-.55.441-.992.992-.992h16.125c.55 0 .992.442.992.992v-.125a.989.989 0 0 0-.992-.992zm0 0" fill="#e6e6e6" fill-opacity=".588"/><path d="M5.457 3.59c-.586 0-1.062.476-1.062 1.062v.922h-2.41c-.587 0-1.063.477-1.063 1.063v7.937c0 .59.476 1.063 1.062 1.063h19.848c.586 0 1.063-.473 1.063-1.063V6.637c0-.258-.094-.496-.25-.68V4.652c0-.586-.477-1.062-1.063-1.062zm0 .14h16.125c.512 0 .922.41.922.922v1.356l.02.02c.14.16.23.374.23.609v7.937c0 .512-.41.922-.922.922H1.984a.919.919 0 0 1-.921-.922V6.637c0-.512.41-.922.921-.922h2.551V4.652c0-.511.41-.922.922-.922zm0 0" fill="#212121"/><path d="M1.984 10.11a.991.991 0 0 0-.992.992v9.425c0 .551.442.996.992.996h19.848a.994.994 0 0 0 .992-.996v-9.425H9.426a.991.991 0 0 1-.992-.993zm0 0" fill="url(#g)"/><path d="M1.984 21.523a.991.991 0 0 1-.992-.992v-.125c0 .547.442.992.992.992h19.848a.994.994 0 0 0 .992-.992v.125a.994.994 0 0 1-.992.992zm0 0" fill-opacity=".196"/><path d="M1.984 10.11a.991.991 0 0 0-.992.992v.125c0-.551.442-.993.992-.993h6.45v-.125zm0 0" fill="#e6e6e6" fill-opacity=".937"/><path d="M9.426 11.227a.991.991 0 0 1-.992-.993v-.125c0 .551.445.996.992.993h13.457v.125zm0 0" fill="#e6e6e6" fill-opacity=".937"/><path d="M1.984 10.04c-.586 0-1.062.476-1.062 1.062v9.425c0 .59.476 1.067 1.062 1.067h19.848c.586 0 1.063-.477 1.063-1.067v-9.496H9.425a.919.919 0 0 1-.921-.922v-.07zm0 .14h6.383a1.06 1.06 0 0 0 1.059.992h13.328v9.355a.92.92 0 0 1-.922.926H1.984a.92.92 0 0 1-.921-.926v-9.425c0-.512.41-.922.921-.922zm0 0" fill="#212121"/></svg>
